X:1
T:The Intoxicated Rat
M:4/4
L:1/4
K:C
 G| c c c c| e c A G| c c d c| e3| e| g g/2g/2 g g/2g/2| e d c G| c c e d|\
 c3||
